docs/.gitbook/assets/icon-eye-16@dark.svg

<svg width="32" height="32" viewBox="0 0 16 16" fill="none" xmlns="http://www.w3.org/2000/svg">
<rect x="0" y="0" width="16" height="16" fill="#181c1f"/>
<path fill-rule="evenodd" clip-rule="evenodd" d="M2.50003 7.99983C2.5 8.00031 2.5 8.00037 2.5 8C2.5 7.99963 2.5 7.99969 2.50003 8.00017C2.50022 8.00346 2.5016 8.02694 2.51128 8.07466C2.52183 8.12669 2.5397 8.1951 2.56731 8.27947C2.62264 8.44859 2.71023 8.66101 2.83293 8.90291C3.07843 9.3869 3.44841 9.95726 3.93393 10.4999C4.91015 11.591 6.28499 12.5 8 12.5C9.71501 12.5 11.0898 11.591 12.0661 10.4999C12.5516 9.95726 12.9216 9.3869 13.1671 8.90291C13.2898 8.66101 13.3774 8.44859 13.4327 8.27947C13.4603 8.1951 13.4782 8.12669 13.4887 8.07466C13.4984 8.02694 13.4998 8.00346 13.5 8.00017C13.5 7.99969 13.5 7.99963 13.5 8C13.5 8.00287 13.4998 7.98002 13.4887 7.92534C13.4782 7.87331 13.4603 7.8049 13.4327 7.72053C13.3774 7.55141 13.2898 7.33899 13.1671 7.09709C12.9216 6.6131 12.5516 6.04274 12.0661 5.5001C11.0898 4.40903 9.71501 3.5 8 3.5C6.28499 3.5 4.91015 4.40903 3.93393 5.5001C3.44841 6.04274 3.07843 6.6131 2.83293 7.09709C2.71023 7.33899 2.62264 7.55141 2.56731 7.72053C2.5397 7.8049 2.52183 7.87331 2.51128 7.92534C2.5016 7.97306 2.50022 7.99654 2.50003 7.99983ZM2.81607 4.4999C3.96485 3.21597 5.71501 2 8 2C10.285 2 12.0352 3.21597 13.1839 4.4999C13.7609 5.14476 14.2034 5.8244 14.5048 6.41853C14.6555 6.71569 14.775 6.99938 14.8583 7.25408C14.9373 7.49553 15 7.75885 15 8C15 8.24115 14.9373 8.50447 14.8583 8.74592C14.775 9.00062 14.6555 9.28431 14.5048 9.58147C14.2034 10.1756 13.7609 10.8552 13.1839 11.5001C12.0352 12.784 10.285 14 8 14C5.71501 14 3.96485 12.784 2.81607 11.5001C2.23909 10.8552 1.79656 10.1756 1.49519 9.58147C1.34446 9.28431 1.22501 9.00062 1.14168 8.74592C1.06268 8.50447 1 8.24115 1 8C1 7.75885 1.06268 7.49553 1.14168 7.25408C1.22501 6.99938 1.34446 6.71569 1.49519 6.41853C1.79656 5.8244 2.23909 5.14476 2.81607 4.4999ZM8 6.5C7.17157 6.5 6.5 7.17157 6.5 8C6.5 8.82843 7.17157 9.5 8 9.5C8.82843 9.5 9.5 8.82843 9.5 8C9.5 7.17157 8.82843 6.5 8 6.5ZM5 8C5 6.34315 6.34315 5 8 5C9.65685 5 11 6.34315 11 8C11 9.65685 9.65685 11 8 11C6.34315 11 5 9.65685 5 8Z" fill="#fff"/>
</svg>

<svg xmlns="http://www.w3.org/2000/svg" width="32" height="32" fill="none" viewBox="0 0 16 16"><path fill="#181c1f" d="M0 0h16v16H0z"/><path fill="#fff" fill-rule="evenodd" d="M2.5 8q-.001.004.011.075.015.078.056.204c.056.17.143.382.266.624a7.6 7.6 0 0 0 1.1 1.597c.977 1.091 2.352 2 4.067 2s3.09-.909 4.066-2a7.6 7.6 0 0 0 1.101-1.597 4.5 4.5 0 0 0 .266-.624q.04-.126.056-.204c.01-.048.01-.072.011-.075 0 .003 0-.02-.011-.075a2 2 0 0 0-.056-.204 4.5 4.5 0 0 0-.266-.624 7.6 7.6 0 0 0-1.1-1.597c-.977-1.09-2.353-2-4.067-2s-3.09.909-4.066 2a7.6 7.6 0 0 0-1.101 1.597 4.6 4.6 0 0 0-.266.624 2 2 0 0 0-.056.204zm.316-3.5C3.965 3.216 5.715 2 8 2s4.035 1.216 5.184 2.5a9 9 0 0 1 1.32 1.919c.152.297.271.58.354.835.08.242.142.505.142.746s-.063.504-.142.746a6 6 0 0 1-.353.835 9 9 0 0 1-1.321 1.92C12.035 12.783 10.285 14 8 14s-4.035-1.216-5.184-2.5a9 9 0 0 1-1.32-1.919 6 6 0 0 1-.354-.835A2.5 2.5 0 0 1 1 8c0-.241.063-.504.142-.746.083-.255.202-.538.353-.835a9 9 0 0 1 1.321-1.92M8 6.5a1.5 1.5 0 1 0 0 3 1.5 1.5 0 0 0 0-3M5 8a3 3 0 1 1 6 0 3 3 0 0 1-6 0" clip-rule="evenodd"/></svg>
